icons/code-of-conduct-24.svg

<svg width="24" height="24" viewBox="0 0 24 24" fill="none" xmlns="http://www.w3.org/2000/svg">
<path fill-rule="evenodd" clip-rule="evenodd" d="M2.82808 4.32835C5.26007 1.89636 9.4991 1.88083 11.935 4.31676C11.9593 4.341 11.9815 4.36648 12.0017 4.393C13.3934 3.3153 14.9948 2.50746 16.7794 2.5029C18.3786 2.49881 19.9816 3.10743 21.2025 4.32835C21.7616 4.88745 22.2262 5.49329 22.5439 6.25038C22.8609 7.00596 23.0126 7.86671 23.0111 8.9133C23.0106 11.8847 20.9641 14.7209 18.742 16.9873C16.6437 19.1274 14.2346 20.9105 12.7683 21.9957C12.659 22.0766 12.555 22.1536 12.4568 22.2265C12.1905 22.4243 11.8261 22.4243 11.5597 22.2265C11.4615 22.1536 11.3575 22.0766 11.2482 21.9957C9.78196 20.9105 7.37287 19.1274 5.27457 16.9873C3.05515 14.7237 1.01097 11.8917 1.00545 8.92425C1.00557 8.92827 1.0057 8.9323 1.00583 8.93632L1.00544 8.9122C1.00544 8.91622 1.00544 8.92024 1.00545 8.92425C0.955533 7.26824 1.56306 5.59336 2.82808 4.32835ZM10.8609 5.37047C9.01456 3.53631 5.73693 3.54735 3.892 5.39227C2.92999 6.35428 2.4692 7.62635 2.50967 8.88809C2.50993 8.89612 2.51006 8.90416 2.51006 8.9122C2.51006 11.2438 4.16027 13.7017 6.34893 15.934C8.29593 17.9197 10.5326 19.5931 12.0083 20.6862C12.6217 20.2318 13.3667 19.6771 14.1677 19.0414L12.0283 17.0666C11.723 16.7848 11.704 16.3088 11.9858 16.0035C12.2676 15.6982 12.7436 15.6792 13.0489 15.961L15.3433 18.0789C15.9588 17.5581 16.5851 16.9983 17.1922 16.4074L15.0336 14.4149C14.7283 14.1331 14.7093 13.6571 14.9911 13.3518C15.2729 13.0465 15.7489 13.0275 16.0542 13.3093L18.242 15.3289C18.8052 14.7152 19.3218 14.0874 19.7698 13.4523C19.5781 13.2603 19.3828 13.0645 19.1848 12.866C18.6484 12.3284 18.0921 11.7707 17.5335 11.2141C16.4557 10.1401 14.6965 10.1592 13.5992 11.257C13.2202 11.6361 12.8394 12.0146 12.4666 12.3826C11.3275 13.5067 9.50632 13.4603 8.39776 12.3396C7.90834 11.8449 7.41613 11.3523 6.92224 10.8584C6.64502 10.5812 6.62716 10.1376 6.88119 9.83898C7.11564 9.56339 7.36462 9.26287 7.62696 8.94621C8.555 7.82604 9.65022 6.50407 10.8609 5.37047ZM20.5862 12.1404C21.1648 11.0603 21.5065 9.97318 21.5065 8.9122V8.91111C21.5078 8.0131 21.3779 7.36046 21.1564 6.83252C20.9356 6.3061 20.6046 5.85828 20.1386 5.39227C19.2122 4.46586 17.9985 4.00441 16.7833 4.00751C15.1223 4.01175 13.5322 4.9593 12.0127 6.35434C10.8326 7.43772 9.78045 8.70695 8.82475 9.85982C8.70632 10.0027 8.58937 10.1438 8.47385 10.2825C8.80538 10.6145 9.13691 10.9474 9.46743 11.2815C10.0091 11.8291 10.8786 11.8357 11.4097 11.3116C11.78 10.9462 12.1584 10.5701 12.535 10.1933C14.1974 8.53011 16.9083 8.46691 18.5956 10.1484C19.1552 10.706 19.715 11.2672 20.2529 11.8064C20.365 11.9187 20.4762 12.0302 20.5862 12.1404Z" fill="#24292F"/>
</svg>

<svg xmlns="http://www.w3.org/2000/svg" width="24" height="24" viewBox="0 0 24 24"><path fill-rule="evenodd" d="M2.828 4.328C5.26 1.896 9.5 1.881 11.935 4.317c.024.024.046.05.067.076 1.391-1.078 2.993-1.886 4.777-1.89a6.216 6.216 0 014.424 1.825c.559.56 1.023 1.165 1.34 1.922.318.756.47 1.617.468 2.663 0 2.972-2.047 5.808-4.269 8.074-2.098 2.14-4.507 3.924-5.974 5.009l-.311.23a.752.752 0 01-.897 0l-.312-.23c-1.466-1.085-3.875-2.869-5.973-5.009-2.22-2.263-4.264-5.095-4.27-8.063v.012-.024.012a6.217 6.217 0 011.823-4.596zm8.033 1.042c-1.846-1.834-5.124-1.823-6.969.022a4.713 4.713 0 00-1.382 3.52c0 2.332 1.65 4.79 3.839 7.022 1.947 1.986 4.184 3.66 5.66 4.752a79.983 79.983 0 002.159-1.645l-2.14-1.974a.752.752 0 011.02-1.106l2.295 2.118c.616-.52 1.242-1.08 1.85-1.672l-2.16-1.992a.752.752 0 011.021-1.106l2.188 2.02a18.992 18.992 0 001.528-1.877l-.585-.586-1.651-1.652c-1.078-1.074-2.837-1.055-3.935.043-.379.38-.76.758-1.132 1.126-1.14 1.124-2.96 1.077-4.07-.043-.489-.495-.98-.988-1.475-1.482a.752.752 0 01-.04-1.019c.234-.276.483-.576.745-.893.928-1.12 2.023-2.442 3.234-3.576zm9.725 6.77c.579-1.08.92-2.167.92-3.228.002-.899-.128-1.552-.35-2.08-.22-.526-.551-.974-1.017-1.44a4.71 4.71 0 00-3.356-1.384c-1.66.004-3.25.951-4.77 2.346-1.18 1.084-2.233 2.353-3.188 3.506l-.351.423c.331.332.663.664.993.998a1.375 1.375 0 001.943.03c.37-.365.748-.74 1.125-1.118 1.662-1.663 4.373-1.726 6.06-.045.56.558 1.12 1.12 1.658 1.658l.333.334z"/></svg>
